Adwaita++/status/16/network-cellular-acquiring.svg

<svg height="16" width="16" xmlns="http://www.w3.org/2000/svg">
  <g fill="#474747">
    <path d="m12 1.01v6h2v5h-2v3h3v-14.02zm-4 2.98v3h3v-3zm-4 2v1h3v-1zm-3.979 4-.021 5h3.021v-3h-2v-2zm3.979 2v3h3v-3zm4 0v3h3v-3z" opacity=".35"/>
    <path d="m5 9.5a1.5 1.5 0 0 1 -1.5 1.5 1.5 1.5 0 0 1 -1.5-1.5 1.5 1.5 0 0 1 1.5-1.5 1.5 1.5 0 0 1 1.5 1.5zm4 0a1.5 1.5 0 0 1 -1.5 1.5 1.5 1.5 0 0 1 -1.5-1.5 1.5 1.5 0 0 1 1.5-1.5 1.5 1.5 0 0 1 1.5 1.5zm4 0a1.5 1.5 0 0 1 -1.5 1.5 1.5 1.5 0 0 1 -1.5-1.5 1.5 1.5 0 0 1 1.5-1.5 1.5 1.5 0 0 1 1.5 1.5z"/>
  </g>
</svg>

<svg xmlns="http://www.w3.org/2000/svg" width="16" height="16">
    <g fill="#474747">
        <path d="M12 1.01v6h2v5h-2v3h3V.99zM8 3.99v3h3v-3zm-4 2v1h3v-1zm-3.979 4l-.021 5h3.021v-3h-2v-2zm3.979 2v3h3v-3zm4 0v3h3v-3z" style="marker:none" color="#bebebe" overflow="visible" opacity=".35"/>
        <path d="M5 9.5A1.5 1.5 0 0 1 3.5 11 1.5 1.5 0 0 1 2 9.5 1.5 1.5 0 0 1 3.5 8 1.5 1.5 0 0 1 5 9.5zM9 9.5A1.5 1.5 0 0 1 7.5 11 1.5 1.5 0 0 1 6 9.5 1.5 1.5 0 0 1 7.5 8 1.5 1.5 0 0 1 9 9.5zM13 9.5a1.5 1.5 0 0 1-1.5 1.5A1.5 1.5 0 0 1 10 9.5 1.5 1.5 0 0 1 11.5 8 1.5 1.5 0 0 1 13 9.5z"/>
    </g>
</svg>
